X: 9527
T: Darling Girl From Clare, The
R: barndance
M: 4/4
K: Amajor
c4 cBAB|c2 c2-c2 c2|d2d2 A2B2|c6 AB|
c4 cBAB|c2 c2-c2 c2|B2A2 G2A2|F6 A2|
e2ef edcd|e2e2-e2e2|f2d2 a2f2|e4 e3^e|
f^efg agaf|efec ABcA|B2F2 G2E2|A4- A4||
e3^d efaf|efec ABcA|(3FFF (3FFF F4|(3fff (3fff f4|
e3f agaf|efec ABcA|B2B2- B2c2|e4- e4|
f^efg agaf|efec ABcA|d2c2 B2A2|F4- F4|
f^efg agaf|efec ABcA|B2F2 G2E2|A4- A4||

